X: 1
T: Gone A Rovin'
C: Ralph Page
R: march, reel
Z: 2012 John Chambers <jc:trillian.mit.edu>
B: Northern Junket, v.13, #11, June 1981
M: C|
L: 1/4
K: G
GA !segno!|\
B>c BA | AG Bd | g>a gf | e2 ef | g>a ge |\
[1 dB Bc | d>e dB | A2 :|[2 dB Bd | c/d/c BA | G2  ||
fg | a>b ag | fd ga | b>c' ba | g2 gf | e>d ef | ag fe | d>e dB | A2 ||
GA | B>c BA | AG Bd | ga gf | e2 ef | g>a ge | dB Bd | cd/c/ BA | G2 "d.S."|]
